X:1
T:Puisqu'ainsi est II
T:Puisqu'ainsi est II
T:Nicolas Gombert
C:Nicolas Gombert
%%score [ 1 2 [ 3 4 ] ]
L:1/8
Q:1/4=80
M:2/2
K:C
V:1 treble nm="Superius" snm="S"
V:2 treble nm="Alto" snm="A"
V:3 treble-8 nm="Tenor 1" snm="T 1"
V:4 treble-8 nm="Tenor 2" snm="T 2"
V:1
 z4 e4- | e4 d4 | f4 e2 e2 | g2 g2 f3 e | dc BA B4 | c8 | B4 d4 | c2 A2 c2 c2 | B3 G A2 B2- | %9
w: Puis-|* qu'ain-|si est que|con- ti- nu- *|e _ _ _ mon|mal-|heur, puis-|qu'ain- si est que|con- ti- nu- e|
 BA A4 G2 | A4 z2 A2 | c3 d e2 c2 | d2 f3 e d2 | c2 d3 c c2 | d2 c2 A4 | z8 | A4 c3 d | %17
w: _ _ mon mal-|heur, et|que ri- gueur a|prins pos- * *|ses- * * si-|on sur moy,||et que ri-|
 e2 f2 g2 e2 | fd f3 e e2- | e2 d4 c2 | d8 | z8 | z8 | z2 f4 e2 | d4 c4 | z2 c2 d2 f2 | %26
w: gueur a prins pos-|ses- * * * si-|* on sur|moy,|||Sy- tres|a- vant|que plai- sirs|
 e3 d c2 e2 | dc BA B4 | A4 z4 | c4 d2 f2 | e3 d c2 B2- | BA A4 G2 | A4 z2 A2 | e2 e2 d2 c2 | %34
w: n'y _ _ ont|pla- * * * c'en|riens,|[que- plai- sirs|n'y _ _ ont|_ _ pla- c'en|riens, sou-|ve- nir me tra-|
 f4 e4 | z2 A2 d2 d2 | c2 c2 d2 f2- | fe e4 d2 | e4 z4 | z4 d4 | f2 c2 d2 f2- | f2 e3 d d2 | %42
w: veil- le,|sou- ve- nir|me tra- veil- *||le,|qui|ne ne veult ce|_ bien _ je|
 e2 e2 e2 e2 | d2 A2 c4 | B4 z2 A2 | A2 A2 G2 D2 | F4 E2 e2 | f3 e d2 c2 | d4 z2 A2 | B3 A G2 F2 | %50
w: lan- guis en grant|pai- * *|ne, je|lan- guis en grant|pai- ne sans|nul bien es- pe-|rer, sans|nul bien es- pe-|
 G4 z2 d2 | e3 d c3 B/A/ | B2 B2 A4- | A4 z2 c2 | d4 e4 | A2 d2 c2 A2 | B2 d4 c2 | d4 z2 c2 | %58
w: rer, sans|nul bien es- * *|* pe- rer,|_ si-|non la|mort qui trop m'y|faict tar- *|der, si-|
 d4 e4 | A4 z4 | d4 c2 A2 | B2 d3 c c2 | d4 z2 c2 | d4 e4 | A2 d2 c2 A2 | B2 d4 c2 | d4 z2 c2 | %67
w: non la|mort|qui trop m'y|faict tar- * *|der, si-|non la|mort qui trop m'y|faict tar- *|der, si-|
 d4 e4 | A4 z4 | d4 c2 A2 | B2 d4 c2 | d2 A2 B2 G2- | G2 A2 B4 | !fermata!A8 |] %74
w: non la|mort|qui trop m'y|faict tar- *|der, qui trop m'y|_ faict tar-|der.|
V:2
 A8 | G4 _B4 | A2 A2 c2 c2 |"^b" B2 G2 A2 B2- | BA A4 G2 | A4 z2 E2 | G2 G2 F2 G2 | A4 G4- | %8
w: Puis-|qu'ain- si|est que con- ti-|nu- e mon _|_ _ _ mal-|heur, que|con- ti- nu- e|mon mal-|
 G2 D2 F4- | F2 D2 E4 | z2 E2 F3 G | A2 F2 G2 A2 |"^b" B2 A3 G F2 | E2 D2 E4 | D2 F2 E3 D | %15
w: |* * heur,|et que ri-|gueur a prins pos-|ses- * * *|* si- on|sur _ _ _|
 C3 B,/A,/ B,4 | A,2 A3 G F2 | E2 D4 C2 | D2 d4 c2- | c2 B2 A4 | z2 _B4 A2 | G4 F2 F2 | %22
w: _ _ _ _|||moy, sy tres|_ a- vant,|Sy tres|a- vant que|
"^b" G2 A2 B2 G2 | A3 G FE A2- | A2 G2 A4 | z4 F4 | G2 G2 A2 c2 | B2 A3 G G2 | E2 A4 G2 | %29
w: plai- sirs n'y ont|pla- * * * *|* c'en riens,|que|plai- sirs n'y ont|pla- * * c'en-||
 A2 A4 B2 | c3 B A2 G2 | F2 D2 E4 | z2 E2 A2 A2 | G2 A2 B2 A2- | AG AB c3 B/A/ | B2 A4 G2 | A8 | %37
w: riens, [que plai-|sirs n'y ont pla-|* c'en riens,|sou- ve- nir|me tra- veil- *|||le,|
 z4 A4 | c4 G2 B2- | BA A4 G2 | A8 | z4 A4 | A2 A2 G2 E2 | F4 E4 | G4 F4 | E2 CD EF E2- | %46
w: qui|ne veult _|_ _ _ ce|bien,|je|lan- guis en grant|pai- *|||
 ED D4 C2 | D4 z2 A2 | B3 A G2 F2 | G4 z2 D2 | E3 D C2 B,2 | C2 G2 A2 A2 | G3 F E4 | D2 F2 G2 A2 | %54
w: |ne sans|nul bien es- pe-|rer, sans|nul bien es- pe-|rer, sans nul bien|es- * pe-|rer, si- non la|
 D2 A2 G3 E | F2 G4 F2 | G2 A2 G2 E2 | F4 E4 | D2 A2 G2 E2 | FG AF G2 A2- | AG G4 F2 | %61
w: mort qui trop m'y|faict tar- *||* der,|si- non la mort|qui _ _ _ trop m'y|_ _ faict tar-|
 G2 A2 G2 E2 | F4 E4 | D2 A2 G2 E2 | F2 G4 F2 | G2 A2 G2 E2 | F4 E4 | D2 A2 G2 F2 | FG AF G2 A2- | %69
w: der, si- non _|la mort,|si- non la mort|qui trop m'y|faict tar- * *|* der,|si- non la mort|qui _ _ _ trop m'y|
 A2 G4 F2 | G4 A4 | A2 F2 G2 B2- | B2 A2 G4 | !fermata!F8 |] %74
w: _ faict tar-||der, qui trop m'y|_ faict tar-|der.|
V:3
 z8 | z8 | z4 e4- | e4 d4 | f4 e4- | e4 e4- | e4 d4 | f4 e4- | e2 B2 d2 d2 |"^b""^b" c2 A2 B2 B2 | %10
w: ||Puis-|* qu'ain-|si est|_ puis-|* qu'ain-|si est|_ que con- ti-|nu- e mon mal-|
 A8- | A4 z4 | z8 | z8 | z2 A2 c3 d | e2 c2 d2 e2 | f2 f2 e2 c2- | c2 BA B2 G2 | A4 a4 | g2 f2 e4 | %20
w: heur,|_|||et que ri-|gueur a prins pos-|ses- si- on _|_ _ _ _ sur|moy, sy|tres a- vant,|
 z4 z2 f2- | f2 e2 d4 | c2 c2 d2 e2 | f3 e d2 c2 |"^b" B4 A3 G | AB c3 B BA | c4 A4 | z8 | %28
w: sy|_ tres a-|vant que plai- sirs|n'y _ _ ont|pla- * *||c'en riens,||
 z2 c2 d4 | f2 e2 f3 g | a2 g2 e2 d2 | c2 BA B4 | A4 z4 | z4 z2 A2 | d2 d2 c2 c2 | d2 f4 ed | %36
w: que plai-|* sirs n'y _|_ ont pla- *|* * * c'en|riens,|sou-|ve- nir me tra-|veil- * * *|
 e2 e2 f2 a2- | a2 g2 f4 | e4 z2 d2 | f2 c2 d4 | z2 e2 f2 a2- | a2 g2 f4 | e8 | z4 z2 e2 | %44
w: le, qui ne me|_ veult ce|bien, qui|ne me veult,|qui ne me|veult _ ce|bien,|je|
 e2 e2 d2 A2 | c4 B3 G | A2 B2 G4 | A4 z2 e2 | f3 e d2 c2 | d4 z2 A2 | B3 A G2 F2 | G2 e2 f2 f2 | %52
w: lan- guis en grant|pai- * *||ne, sans|nul bien es- pe-|rer, sans|nul bien es- pe-|rer, sans nul bien|
 ed d4 c2 | d4 z4 | z8 | z4 c4 | d4 e4 | A2 a2 g2 e2 | f2 d4 c2 | d2 f2 e2 c2 | d3 c/d/ e2 c2 | %61
w: es- * * pe-|rer,||si-|non la|mort qui trop m'y|faict tar- *|der, qui trop m'y|faict _ _ _ tar-|
 d2 f2 e4 | d2 f2 g2 a2 | d2 f2 e2 e2 | d4 z2 c2 | d4 e4 | A2 a2 g2 e2 | f2 d3 c c2 | d2 f2 e2 c2 | %69
w: |der, si- non la|mort, si- non la|mort, si-|ni- non|mort qui trop m'y|faict tar- * *|der, qui trop m'y|
 d3 c/d/ e2 c2 | d4 e4 | d8- | d8- | !fermata!d8 |] %74
w: faict _ _ _ tar-||der.|_||
V:4
 z8 | z8 | z8 | z8 |"^b" z8 | A8 |"^b" G4 B4 | A4 z2 E2 | G2 G2 F2 D2 | F2 F2 E4 | A4 z4 | z8 | %12
w: |||||Puis-|qu'ain- si|est que|con- ti- nu- e|mon mal- heur,|_||
 z2 D2 F3 G | A2 F2 G2 A2 | B2 A4 GF | E2 A3 G G2 | F2 D2 A4- | A2 F2 E4 | D3 E FG AB | c2 d2 A4 | %20
w: et que ri-|gueur a prins pos-|ses- * * *|* si- * on|sur moy, et|_ que ri-|gueur a prins _ _ _|_ pos- ses-|
"^b" B3 A G2 F2 | c4 z2 _B2- | B2 A2 G4 | F4 z4 | z4 z2 F2- | F2 E2 D4 | C4 z2 c2 | d2 f2 e3 d | %28
w: si- * on sur|moy, sy|_ tres a-|vant,|sy|_ tres a-|vant, que|pla- sirs n'y _|
"^b" c2 A2 B4 | A2 A2 d2 d2 | c6 G2 | A2 F2 E4 | A8 | z8 | D4 A2 A2 | G2 F2 B4 | A4 D4 | F2 C2 D4 | %38
w: _ ont pla-|ce, que plai- sirs|n'y ont|pla- * c'en|riens,||sou- ve- nir|me tra- veil-|le, qui|ne me veult|
 A4 c2 G2 | A4 B4 | A4 d4 | f2 c2 d2 d2 | A4 z4 | z2 A2 A2 A2 | G2 E2 F3 D | A2 A2 E2 G2 | %46
w: ce bien, qui|ne me|veult _|_ _ _ ce|bien,|je lan guis|en grant pai _|ne, en grant- pai-|
 F2 D2 E4 | D4 z2 A2 | d3 c B2 A2 | G4 z2 D2 | G3 F E2 D2 | C4 z2 F2 | G4 A4 | D2 d2 c2 A2 | %54
w: |ne, sans|nul bien es- pe-|rer, sans|nul bien es- pe-|rer, si-|non la|mort qui trop m'y|
 B2 d4 c2 | d2 B2 A4 | G2 F2 E4 | D2 F2 G2 A2 | D4 z4 | d4 c2 A2 | B4 A4 | G2 F2 G2 A2 | %62
w: faict tar- *|* der, si-|non _ la|mort, si- non la|mort|qui trop m'y|faict tar-|der, si- non la|
 D2 d2 c2 A2 | B2 d4 c2 | d2 B2 A4 | G2 F2 E4 | D2 F2 G2 A2 |"^b""^b" D4 z4 | d4 c2 A2 | %69
w: mort qui trop m'y|faict tar- *|||der, si- non la|mort,|qui trop m'y|
"^b""^b" B4 A4 |"^b" G2 B2 A4 | D4 G4 | G2 F2 G2 G2 | !fermata!D8 |] %74
w: faict tar-||der, qui|trop m'y faict tar-|der.|

